symbols/web/dynamic_feed/materialsymbolsrounded/dynamic_feed_grad200_40px.svg

<svg xmlns="http://www.w3.org/2000/svg" height="40" width="40"><path d="M12.083 29.75q-1.416 0-2.479-1.042-1.062-1.041-1.062-2.458V13.875q0-.708.52-1.229.521-.521 1.271-.521.709 0 1.209.521.5.521.5 1.229V26.25h15.833q.708 0 1.229.521.521.521.521 1.229 0 .708-.521 1.229-.521.521-1.229.521Zm6.25-6.292q-1.416 0-2.458-1.041-1.042-1.042-1.042-2.459v-12.5q0-1.416 1.042-2.458 1.042-1.042 2.458-1.042H34.25q1.417 0 2.458 1.042 1.042 1.042 1.042 2.458v12.5q0 1.417-1.042 2.459-1.041 1.041-2.458 1.041Zm0-3.5H34.25V9.542H18.333v10.416ZM5.792 36q-1.417 0-2.459-1.042-1.041-1.041-1.041-2.458V19.417q0-.709.5-1.209.5-.5 1.25-.5.708 0 1.229.5.521.5.521 1.209V32.5h16.5q.708 0 1.229.521.521.521.521 1.271 0 .708-.521 1.208t-1.229.5Z"/></svg>

<svg xmlns="http://www.w3.org/2000/svg" height="40" width="40"><path d="M12.083 29.75Q10.667 29.75 9.604 28.708Q8.542 27.667 8.542 26.25V13.875Q8.542 13.167 9.062 12.646Q9.583 12.125 10.333 12.125Q11.042 12.125 11.542 12.646Q12.042 13.167 12.042 13.875V26.25Q12.042 26.25 12.042 26.25Q12.042 26.25 12.042 26.25H27.875Q28.583 26.25 29.104 26.771Q29.625 27.292 29.625 28Q29.625 28.708 29.104 29.229Q28.583 29.75 27.875 29.75ZM18.333 23.458Q16.917 23.458 15.875 22.417Q14.833 21.375 14.833 19.958V7.458Q14.833 6.042 15.875 5Q16.917 3.958 18.333 3.958H34.25Q35.667 3.958 36.708 5Q37.75 6.042 37.75 7.458V19.958Q37.75 21.375 36.708 22.417Q35.667 23.458 34.25 23.458ZM18.333 19.958H34.25Q34.25 19.958 34.25 19.958Q34.25 19.958 34.25 19.958V9.542H18.333V19.958Q18.333 19.958 18.333 19.958Q18.333 19.958 18.333 19.958ZM5.792 36Q4.375 36 3.333 34.958Q2.292 33.917 2.292 32.5V19.417Q2.292 18.708 2.792 18.208Q3.292 17.708 4.042 17.708Q4.75 17.708 5.271 18.208Q5.792 18.708 5.792 19.417V32.5Q5.792 32.5 5.792 32.5Q5.792 32.5 5.792 32.5H22.292Q23 32.5 23.521 33.021Q24.042 33.542 24.042 34.292Q24.042 35 23.521 35.5Q23 36 22.292 36Z"/></svg>
